; generated by Slic3r 1.1.7 on 2015-05-01 at 17:34:41

; perimeters extrusion width = 0.40mm
; infill extrusion width = 0.40mm
; solid infill extrusion width = 0.40mm
; top infill extrusion width = 0.40mm
; support material extrusion width = 0.40mm

G21 ; set units to millimeters
M107
M190 S65 ; wait for bed temperature to be reached
M104 S195 ; set temperature
G28 ; home all axes
G29 Z0.1 ; autolevel
G0 Z80 F5000
G0 X0.0 Y0.0 F5000
M109 S195 ; wait for temperature to be reached
G90 ; use absolute coordinates
G92 E0
M82 ; use absolute distances for extrusion
G1 F9000.000 E-10.00000
G1 Z0.400 F14400.000
G92 E0
G1 X9.764 Y0.000 F14400.000
G1 Z0.200 F14400.000
G1 E10.00000 F9000.000
G1 X9.764 Y4.838 E10.14877 F2160.000
G1 X7.571 Y7.031 E10.24413
G1 X7.512 Y7.174 E10.24890
G1 X7.512 Y26.256 E10.83564
G1 X7.571 Y26.399 E10.84040
G1 X9.535 Y28.362 E10.92578
G1 X9.535 Y34.838 E11.12492
G1 X6.228 Y38.144 E11.26870
G1 X-6.228 Y38.144 E11.65174
G1 X-9.535 Y34.838 E11.79553
G1 X-9.535 Y28.362 E11.99466
G1 X-7.571 Y26.399 E12.08004
G1 X-7.512 Y26.256 E12.08480
G1 X-7.512 Y7.174 E12.67155
G1 X-7.571 Y7.031 E12.67631
G1 X-9.764 Y4.838 E12.77168
G1 X-9.764 Y-18.447 E13.48769
G1 X-9.806 Y-18.570 E13.49168
G1 X-10.386 Y-19.414 E13.52317
G1 X-10.687 Y-19.924 E13.54136
G1 X-11.041 Y-20.606 E13.56501
G1 X-11.417 Y-21.474 E13.59410
G1 X-11.672 Y-22.200 E13.61775
G1 X-11.838 Y-22.769 E13.63597
G1 X-12.044 Y-23.693 E13.66507
G1 X-12.159 Y-24.452 E13.68870
G1 X-12.226 Y-25.219 E13.71235
G1 X-12.244 Y-25.811 E13.73059
G1 X-12.226 Y-26.581 E13.75427
G1 X-12.137 Y-27.523 E13.78335
G1 X-12.044 Y-28.108 E13.80158
G1 X-11.902 Y-28.767 E13.82228
G1 X-11.672 Y-29.600 E13.84886
G1 X-11.352 Y-30.490 E13.87796
G1 X-11.116 Y-31.034 E13.89618
G1 X-10.772 Y-31.722 E13.91982
G1 X-10.291 Y-32.536 E13.94891
G1 X-9.958 Y-33.026 E13.96713
G1 X-9.491 Y-33.636 E13.99075
G1 X-8.865 Y-34.346 E14.01986
G1 X-8.447 Y-34.765 E14.03807
G1 X-7.873 Y-35.278 E14.06172
G1 X-7.126 Y-35.858 E14.09081
G1 X-6.636 Y-36.191 E14.10903
G1 X-5.976 Y-36.587 E14.13270
G1 X-5.133 Y-37.017 E14.16180
G1 X-4.425 Y-37.317 E14.18543
G1 X-3.868 Y-37.518 E14.20364
G1 X-2.959 Y-37.782 E14.23275
G1 X-2.208 Y-37.944 E14.25638
G1 X-1.623 Y-38.037 E14.27459
G1 X-0.856 Y-38.115 E14.29829
G1 X0.089 Y-38.144 E14.32736
G1 X0.680 Y-38.126 E14.34555 F2160.000
G1 X1.446 Y-38.059 E14.36919
G1 X2.208 Y-37.944 E14.39289
G1 X3.130 Y-37.738 E14.42196
G1 X3.868 Y-37.518 E14.44563
G1 X4.589 Y-37.252 E14.46926
G1 X5.133 Y-37.017 E14.48749
G1 X5.976 Y-36.587 E14.51657
G1 X6.636 Y-36.191 E14.54025
G1 X7.269 Y-35.754 E14.56389
G1 X7.736 Y-35.391 E14.58208
G1 X8.317 Y-34.887 E14.60574
G1 X8.986 Y-34.217 E14.63485
G1 X9.378 Y-33.773 E14.65305
G1 X9.796 Y-33.244 E14.67379
G1 X10.291 Y-32.535 E14.70038
G1 X10.773 Y-31.721 E14.72947
G1 X11.117 Y-31.033 E14.75311
G1 X11.352 Y-30.490 E14.77131
G1 X11.672 Y-29.600 E14.80041
G1 X11.882 Y-28.859 E14.82407
G1 X12.044 Y-28.107 E14.84772
G1 X12.159 Y-27.347 E14.87138
G1 X12.226 Y-26.580 E14.89503
G1 X12.244 Y-25.989 E14.91324
G1 X12.215 Y-25.042 E14.94235
G1 X12.137 Y-24.277 E14.96601
G1 X12.011 Y-23.519 E14.98962
G1 X11.882 Y-22.941 E15.00786
G1 X11.672 Y-22.200 E15.03151
G1 X11.417 Y-21.475 E15.05516
G1 X11.117 Y-20.767 E15.07881
G1 X10.687 Y-19.924 E15.10790
G1 X10.291 Y-19.264 E15.13156
G1 X9.806 Y-18.570 E15.15760
G1 X9.764 Y-18.447 E15.16158
G1 X9.764 Y-0.052 E15.72722
G1 X9.375 Y0.000 F14400.000
G1 X9.375 Y4.677 E15.87102 F2160.000
G1 X7.182 Y6.870 E15.96639
G1 X7.123 Y7.013 E15.97115
G1 X7.123 Y26.417 E16.56781
G1 X7.182 Y26.560 E16.57258
G1 X9.146 Y28.523 E16.65796
G1 X9.146 Y34.677 E16.84718
G1 X6.067 Y37.755 E16.98104
G1 X-6.067 Y37.755 E17.35417
G1 X-9.146 Y34.677 E17.48804
G1 X-9.146 Y28.523 E17.67725
G1 X-7.182 Y26.560 E17.76264
G1 X-7.123 Y26.417 E17.76740
G1 X-7.123 Y7.013 E18.36406
G1 X-7.182 Y6.870 E18.36882
G1 X-9.375 Y4.677 E18.46419
G1 X-9.375 Y-18.581 E19.17934
G1 X-9.417 Y-18.703 E19.18333
G1 X-9.639 Y-18.998 E19.19468
G1 X-10.054 Y-19.618 E19.21761
G1 X-10.349 Y-20.117 E19.23543
G1 X-10.692 Y-20.778 E19.25832
G1 X-11.053 Y-21.612 E19.28628
G1 X-11.300 Y-22.315 E19.30919
G1 X-11.462 Y-22.872 E19.32702
G1 X-11.661 Y-23.760 E19.35500
G1 X-11.772 Y-24.495 E19.37787
G1 X-11.827 Y-25.073 E19.39572
G1 X-11.855 Y-25.983 E19.42370
G1 X-11.837 Y-26.563 E19.44156
G1 X-11.772 Y-27.305 E19.46446
G1 X-11.630 Y-28.203 E19.49242
G1 X-11.503 Y-28.769 E19.51025
G1 X-11.300 Y-29.485 E19.53315
G1 X-10.992 Y-30.341 E19.56112
G1 X-10.762 Y-30.874 E19.57896
G1 X-10.469 Y-31.460 E19.59913
G1 X-10.054 Y-32.182 E19.62473
G1 X-9.542 Y-32.935 E19.65272
G1 X-9.082 Y-33.520 E19.67561
G1 X-8.699 Y-33.955 E19.69343
G1 X-8.055 Y-34.599 E19.72141
G1 X-7.493 Y-35.087 E19.74432
G1 X-7.035 Y-35.442 E19.76214
G1 X-6.282 Y-35.954 E19.79013
G1 X-5.639 Y-36.328 E19.81301
G1 X-5.123 Y-36.592 E19.83084
G1 X-4.288 Y-36.953 E19.85881
G1 X-3.584 Y-37.201 E19.88174
G1 X-3.027 Y-37.362 E19.89959
G1 X-2.141 Y-37.560 E19.92750
G1 X-1.404 Y-37.672 E19.95043
G1 X-0.826 Y-37.727 E19.96828
G1 X-0.082 Y-37.755 E19.99118
G1 X0.826 Y-37.727 E20.01912 F2160.000
G1 X1.568 Y-37.651 E20.04204
G1 X2.141 Y-37.561 E20.05988
G1 X2.869 Y-37.403 E20.08277
G1 X3.742 Y-37.149 E20.11074
G1 X4.441 Y-36.892 E20.13362
G1 X4.973 Y-36.662 E20.15147
G1 X5.783 Y-36.249 E20.17942
G1 X6.422 Y-35.865 E20.20235
G1 X7.035 Y-35.443 E20.22524
G1 X7.493 Y-35.088 E20.24305
G1 X8.055 Y-34.599 E20.26597
G1 X8.698 Y-33.955 E20.29394
G1 X9.082 Y-33.521 E20.31176
G1 X9.488 Y-33.005 E20.33194
G1 X9.966 Y-32.321 E20.35759
G1 X10.429 Y-31.539 E20.38556
G1 X10.762 Y-30.873 E20.40845
G1 X10.992 Y-30.341 E20.42627
G1 X11.300 Y-29.485 E20.45424
G1 X11.503 Y-28.768 E20.47715
G1 X11.661 Y-28.040 E20.50005
G1 X11.772 Y-27.304 E20.52295
G1 X11.837 Y-26.562 E20.54585
G1 X11.855 Y-25.982 E20.56369
G1 X11.827 Y-25.073 E20.59167
G1 X11.751 Y-24.332 E20.61458
G1 X11.630 Y-23.598 E20.63744
G1 X11.503 Y-23.031 E20.65529
G1 X11.300 Y-22.315 E20.67820
G1 X11.053 Y-21.612 E20.70109
G1 X10.762 Y-20.927 E20.72399
G1 X10.349 Y-20.117 E20.75195
G1 X9.966 Y-19.478 E20.77486
G1 X9.417 Y-18.703 E20.80405
G1 X9.375 Y-18.581 E20.80804
G1 X9.375 Y-0.052 E21.37777
G1 X8.986 Y0.000 F14400.000
G1 X8.986 Y4.516 E21.51662 F2160.000
G1 X6.793 Y6.709 E21.61199
G1 X6.734 Y6.852 E21.61675
G1 X6.734 Y26.578 E22.22333
G1 X6.793 Y26.721 E22.22809
G1 X8.756 Y28.684 E22.31347
G1 X8.756 Y34.516 E22.49277
G1 X5.906 Y37.366 E22.61672
G1 X-5.906 Y37.366 E22.97993
G1 X-8.756 Y34.516 E23.10388
G1 X-8.756 Y28.684 E23.28318
G1 X-6.793 Y26.721 E23.36857
G1 X-6.734 Y26.578 E23.37333
G1 X-6.734 Y6.852 E23.97991
G1 X-6.793 Y6.709 E23.98467
G1 X-8.986 Y4.516 E24.08004
G1 X-8.986 Y-18.714 E24.79433
G1 X-9.028 Y-18.837 E24.79832
G1 X-9.321 Y-19.222 E24.81320
G1 X-9.722 Y-19.821 E24.83537
G1 X-10.011 Y-20.309 E24.85282
G1 X-10.342 Y-20.949 E24.87496
G1 X-10.689 Y-21.750 E24.90180
G1 X-10.928 Y-22.429 E24.92395
G1 X-11.087 Y-22.974 E24.94141
G1 X-11.277 Y-23.827 E24.96826
G1 X-11.385 Y-24.538 E24.99038
G1 X-11.438 Y-25.103 E25.00785
G1 X-11.466 Y-25.976 E25.03471
G1 X-11.448 Y-26.545 E25.05219
G1 X-11.385 Y-27.262 E25.07433
G1 X-11.248 Y-28.124 E25.10116
G1 X-11.125 Y-28.678 E25.11862
G1 X-10.928 Y-29.371 E25.14077
G1 X-10.632 Y-30.192 E25.16761
G1 X-10.407 Y-30.713 E25.18507
G1 X-10.084 Y-31.357 E25.20722
G1 X-9.640 Y-32.108 E25.23405
G1 X-9.321 Y-32.578 E25.25152
G1 X-8.884 Y-33.149 E25.27363
G1 X-8.306 Y-33.804 E25.30049
G1 X-7.905 Y-34.206 E25.31795
G1 X-7.368 Y-34.686 E25.34009
G1 X-6.678 Y-35.221 E25.36693
G1 X-6.208 Y-35.540 E25.38440
G1 X-5.590 Y-35.911 E25.40655
G1 X-4.812 Y-36.307 E25.43340
G1 X-4.150 Y-36.589 E25.45553
G1 X-3.616 Y-36.781 E25.47299
G1 X-2.777 Y-37.025 E25.49984
G1 X-2.074 Y-37.177 E25.52197
G1 X-1.513 Y-37.266 E25.53943
G1 X-0.795 Y-37.339 E25.56161
G1 X0.076 Y-37.366 E25.58844
G1 X0.643 Y-37.348 E25.60588 F2160.000
G1 X1.361 Y-37.285 E25.62802
G1 X2.074 Y-37.177 E25.65020
G1 X2.925 Y-36.987 E25.67702
G1 X3.616 Y-36.781 E25.69919
G1 X4.292 Y-36.533 E25.72132
G1 X4.813 Y-36.307 E25.73879
G1 X5.590 Y-35.911 E25.76562
G1 X6.208 Y-35.540 E25.78779
G1 X6.678 Y-35.221 E25.80523
G1 X7.249 Y-34.784 E25.82736
G1 X7.793 Y-34.311 E25.84952
G1 X8.411 Y-33.693 E25.87637
G1 X8.786 Y-33.268 E25.89382
G1 X9.181 Y-32.767 E25.91344
G1 X9.640 Y-32.108 E25.93814
G1 X10.085 Y-31.356 E25.96498
G1 X10.407 Y-30.713 E25.98712
G1 X10.632 Y-30.192 E26.00456
G1 X10.928 Y-29.371 E26.03141
G1 X11.125 Y-28.677 E26.05356
G1 X11.277 Y-27.974 E26.07571
G1 X11.385 Y-27.261 E26.09786
G1 X11.448 Y-26.544 E26.12001
G1 X11.466 Y-25.976 E26.13747
G1 X11.438 Y-25.103 E26.16432
G1 X11.366 Y-24.387 E26.18648
G1 X11.249 Y-23.677 E26.20859
G1 X11.125 Y-23.122 E26.22607
G1 X10.928 Y-22.429 E26.24822
G1 X10.689 Y-21.750 E26.27036
G1 X10.407 Y-21.087 E26.29251
G1 X10.085 Y-20.444 E26.31465
G1 X9.722 Y-19.821 E26.33681
G1 X9.321 Y-19.222 E26.35896
G1 X9.028 Y-18.837 E26.37386
G1 X8.986 Y-18.714 E26.37784
G1 X8.986 Y-0.052 E26.95167
G1 X8.597 Y0.000 F14400.000
G1 X8.597 Y4.354 E27.08557 F2160.000
G1 X6.404 Y6.547 E27.18093
G1 X6.344 Y6.690 E27.18570
G1 X6.344 Y26.739 E27.80219
G1 X6.404 Y26.882 E27.80695
G1 X8.367 Y28.846 E27.89233
G1 X8.367 Y34.354 E28.06172
G1 X5.745 Y36.977 E28.17575
G1 X-5.745 Y36.977 E28.52905
G1 X-8.367 Y34.354 E28.64308
G1 X-8.367 Y28.846 E28.81247
G1 X-6.404 Y26.882 E28.89785
G1 X-6.344 Y26.739 E28.90261
G1 X-6.344 Y6.690 E29.51910
G1 X-6.404 Y6.547 E29.52386
G1 X-8.597 Y4.354 E29.61923
G1 X-8.597 Y-18.847 E30.33267
G1 X-8.639 Y-18.970 E30.33665
G1 X-9.002 Y-19.446 E30.35507
G1 X-9.390 Y-20.024 E30.37649
G1 X-9.673 Y-20.502 E30.39356
G1 X-9.992 Y-21.120 E30.41496
G1 X-10.324 Y-21.887 E30.44066
G1 X-10.556 Y-22.544 E30.46206
G1 X-10.711 Y-23.077 E30.47914
G1 X-10.894 Y-23.894 E30.50487
G1 X-10.998 Y-24.581 E30.52624
G1 X-11.050 Y-25.134 E30.54333
G1 X-11.077 Y-25.970 E30.56906
G1 X-11.059 Y-26.526 E30.58616
G1 X-10.998 Y-27.219 E30.60756
G1 X-10.867 Y-28.045 E30.63326
G1 X-10.746 Y-28.587 E30.65034
G1 X-10.556 Y-29.256 E30.67173
G1 X-10.273 Y-30.043 E30.69745
G1 X-10.052 Y-30.553 E30.71453
G1 X-9.775 Y-31.106 E30.73356
G1 X-9.390 Y-31.776 E30.75730
G1 X-8.920 Y-32.468 E30.78303
G1 X-8.490 Y-33.015 E30.80442
G1 X-8.123 Y-33.431 E30.82149
G1 X-7.531 Y-34.023 E30.84722
G1 X-7.006 Y-34.480 E30.86862
G1 X-6.568 Y-34.820 E30.88568
G1 X-5.875 Y-35.290 E30.91142
G1 X-5.398 Y-35.573 E30.92849
G1 X-4.780 Y-35.892 E30.94987
G1 X-4.013 Y-36.224 E30.97559
G1 X-3.356 Y-36.456 E30.99701
G1 X-2.822 Y-36.611 E31.01411
G1 X-2.007 Y-36.793 E31.03977
G1 X-1.318 Y-36.898 E31.06119
G1 X-0.765 Y-36.950 E31.07829
G1 X-0.070 Y-36.977 E31.09968
G1 X0.765 Y-36.950 E31.12537 F2160.000
G1 X1.458 Y-36.880 E31.14678
G1 X2.007 Y-36.793 E31.16387
G1 X2.687 Y-36.646 E31.18526
G1 X3.490 Y-36.413 E31.21098
G1 X4.143 Y-36.173 E31.23236
G1 X4.653 Y-35.952 E31.24945
G1 X5.397 Y-35.573 E31.27515
G1 X5.995 Y-35.215 E31.29657
G1 X6.567 Y-34.820 E31.31795
G1 X7.006 Y-34.480 E31.33502
G1 X7.634 Y-33.926 E31.36075
G1 X8.123 Y-33.431 E31.38215
G1 X8.490 Y-33.015 E31.39922
G1 X8.873 Y-32.528 E31.41827
G1 X9.315 Y-31.894 E31.44203
G1 X9.741 Y-31.174 E31.46774
G1 X10.052 Y-30.553 E31.48913
G1 X10.273 Y-30.043 E31.50620
G1 X10.556 Y-29.256 E31.53192
G1 X10.746 Y-28.587 E31.55332
G1 X10.894 Y-27.907 E31.57472
G1 X10.998 Y-27.219 E31.59611
G1 X11.059 Y-26.525 E31.61751
G1 X11.077 Y-25.970 E31.63459
G1 X11.050 Y-25.134 E31.66032
G1 X10.980 Y-24.442 E31.68172
G1 X10.867 Y-23.756 E31.70309
G1 X10.746 Y-23.213 E31.72018
G1 X10.556 Y-22.544 E31.74158
G1 X10.325 Y-21.888 E31.76298
G1 X10.052 Y-21.247 E31.78437
G1 X9.741 Y-20.626 E31.80576
G1 X9.390 Y-20.024 E31.82716
G1 X9.002 Y-19.446 E31.84857
G1 X8.639 Y-18.970 E31.86700
G1 X8.597 Y-18.847 E31.87098
G1 X8.597 Y-0.052 E32.44891
G1 X8.207 Y0.000 F14400.000
G1 X8.207 Y4.193 E32.57784 F2160.000
G1 X6.014 Y6.386 E32.67321
G1 X5.955 Y6.529 E32.67798
G1 X5.955 Y26.900 E33.30438
G1 X6.014 Y27.044 E33.30915
G1 X7.978 Y29.007 E33.39453
G1 X7.978 Y34.193 E33.55400
G1 X5.583 Y36.587 E33.65812
G1 X-5.583 Y36.587 E34.00149
G1 X-7.978 Y34.193 E34.10561
G1 X-7.978 Y29.007 E34.26508
G1 X-6.014 Y27.044 E34.35046
G1 X-5.955 Y26.900 E34.35522
G1 X-5.955 Y6.529 E34.98163
G1 X-6.014 Y6.386 E34.98639
G1 X-8.207 Y4.193 E35.08176
G1 X-8.207 Y-18.981 E35.79434
G1 X-8.249 Y-19.103 E35.79832
G1 X-8.608 Y-19.566 E35.81634
G1 X-8.989 Y-20.119 E35.83699
G1 X-9.396 Y-20.808 E35.86159
G1 X-9.697 Y-21.407 E35.88221
G1 X-9.913 Y-21.906 E35.89892
G1 X-10.184 Y-22.658 E35.92351
G1 X-10.336 Y-23.180 E35.94021
G1 X-10.486 Y-23.834 E35.96086
G1 X-10.595 Y-24.497 E35.98150
G1 X-10.662 Y-25.165 E36.00214
G1 X-10.687 Y-25.964 E36.02674
G1 X-10.670 Y-26.508 E36.04346
G1 X-10.611 Y-27.177 E36.06411
G1 X-10.486 Y-27.966 E36.08868
G1 X-10.367 Y-28.496 E36.10539
G1 X-10.184 Y-29.142 E36.12603
G1 X-9.913 Y-29.894 E36.15062
G1 X-9.697 Y-30.393 E36.16733
G1 X-9.396 Y-30.993 E36.18797
G1 X-8.989 Y-31.681 E36.21255
G1 X-8.684 Y-32.130 E36.22926
G1 X-8.276 Y-32.663 E36.24988
G1 X-7.747 Y-33.263 E36.27448
G1 X-7.363 Y-33.647 E36.29118
G1 X-6.862 Y-34.094 E36.31182
G1 X-6.230 Y-34.584 E36.33641
G1 X-5.781 Y-34.889 E36.35312
G1 X-5.205 Y-35.235 E36.37377
G1 X-4.492 Y-35.598 E36.39837
G1 X-3.875 Y-35.860 E36.41899
G1 X-3.364 Y-36.044 E36.43570
G1 X-2.596 Y-36.267 E36.46029
G1 X-1.940 Y-36.410 E36.48092
G1 X-1.403 Y-36.495 E36.49763
G1 X-0.734 Y-36.562 E36.51830
G1 X0.064 Y-36.587 E36.54287
G1 X0.607 Y-36.570 E36.55956 F2160.000
G1 X1.275 Y-36.511 E36.58020
G1 X1.940 Y-36.410 E36.60088
G1 X2.720 Y-36.236 E36.62544
G1 X3.241 Y-36.084 E36.64214
G1 X3.875 Y-35.860 E36.66280
G1 X4.609 Y-35.543 E36.68740
G1 X5.205 Y-35.235 E36.70802
G1 X5.672 Y-34.958 E36.72473
G1 X6.230 Y-34.584 E36.74538
G1 X6.862 Y-34.094 E36.76997
G1 X7.363 Y-33.647 E36.79062
G1 X7.835 Y-33.169 E36.81126
G1 X8.194 Y-32.762 E36.82795
G1 X8.609 Y-32.234 E36.84861
G1 X9.058 Y-31.572 E36.87320
G1 X9.335 Y-31.105 E36.88991
G1 X9.643 Y-30.509 E36.91053
G1 X9.960 Y-29.775 E36.93513
G1 X10.184 Y-29.142 E36.95577
G1 X10.336 Y-28.620 E36.97246
G1 X10.486 Y-27.966 E36.99311
G1 X10.611 Y-27.176 E37.01771
G1 X10.670 Y-26.507 E37.03836
G1 X10.687 Y-25.836 E37.05900
G1 X10.670 Y-25.293 E37.07570
G1 X10.611 Y-24.624 E37.09635
G1 X10.510 Y-23.961 E37.11699
G1 X10.368 Y-23.304 E37.13764
G1 X10.184 Y-22.658 E37.15829
G1 X9.960 Y-22.025 E37.17893
G1 X9.643 Y-21.291 E37.20353
G1 X9.335 Y-20.695 E37.22415
G1 X9.058 Y-20.228 E37.24086
G1 X8.684 Y-19.670 E37.26151
G1 X8.249 Y-19.103 E37.28348
G1 X8.207 Y-18.981 E37.28746
G1 X8.207 Y-0.052 E37.86949
G1 X7.818 Y0.000 F14400.000
G1 X7.818 Y4.032 E37.99347 F2160.000
G1 X5.625 Y6.225 E38.08883
G1 X5.566 Y6.368 E38.09360
G1 X5.566 Y27.062 E38.72992
G1 X5.625 Y27.205 E38.73468
G1 X7.588 Y29.168 E38.82006
G1 X7.588 Y34.032 E38.96962
G1 X5.422 Y36.198 E39.06382
G1 X-5.422 Y36.198 E39.39728
G1 X-7.588 Y34.032 E39.49148
G1 X-7.588 Y29.168 E39.64104
G1 X-5.625 Y27.205 E39.72642
G1 X-5.566 Y27.062 E39.73118
G1 X-5.566 Y6.368 E40.36750
G1 X-5.625 Y6.225 E40.37227
G1 X-7.818 Y4.032 E40.46763
G1 X-7.818 Y-19.122 E41.17962
G1 X-7.864 Y-19.250 E41.18379
G1 X-8.297 Y-19.800 E41.20531
G1 X-8.664 Y-20.333 E41.22521
G1 X-9.052 Y-20.990 E41.24868
G1 X-9.342 Y-21.567 E41.26855
G1 X-9.553 Y-22.055 E41.28488
G1 X-9.812 Y-22.773 E41.30834
G1 X-9.960 Y-23.283 E41.32467
G1 X-10.105 Y-23.913 E41.34457
G1 X-10.210 Y-24.551 E41.36445
G1 X-10.274 Y-25.195 E41.38435
G1 X-10.298 Y-25.958 E41.40781
G1 X-10.281 Y-26.489 E41.42416
G1 X-10.224 Y-27.134 E41.44405
G1 X-10.105 Y-27.887 E41.46750
G1 X-9.989 Y-28.405 E41.48383
G1 X-9.812 Y-29.027 E41.50372
G1 X-9.553 Y-29.745 E41.52718
G1 X-9.342 Y-30.233 E41.54351
G1 X-9.081 Y-30.753 E41.56142
G1 X-8.726 Y-31.369 E41.58328
G1 X-8.297 Y-32.000 E41.60675
G1 X-7.898 Y-32.509 E41.62664
G1 X-7.547 Y-32.907 E41.64295
G1 X-7.007 Y-33.447 E41.66642
G1 X-6.519 Y-33.872 E41.68632
G1 X-6.100 Y-34.197 E41.70264
G1 X-5.469 Y-34.626 E41.72611
G1 X-5.012 Y-34.896 E41.74243
G1 X-4.437 Y-35.193 E41.76231
G1 X-3.737 Y-35.496 E41.78577
G1 X-3.127 Y-35.712 E41.80569
G1 X-2.616 Y-35.860 E41.82203
G1 X-1.873 Y-36.026 E41.84545
G1 X-1.233 Y-36.124 E41.86536
